gloss/img/mail.svg

<svg width="24" height="24" viewBox="0 0 24 24" fill="none" xmlns="http://www.w3.org/2000/svg">
<path d="M19.4364 4.06543H4.56641C3.90337 4.06543 3.26748 4.32882 2.79864 4.79766C2.3298 5.2665 2.06641 5.90239 2.06641 6.56543V17.4354C2.06641 18.0985 2.3298 18.7344 2.79864 19.2032C3.26748 19.672 3.90337 19.9354 4.56641 19.9354H19.4364C20.0994 19.9354 20.7353 19.672 21.2042 19.2032C21.673 18.7344 21.9364 18.0985 21.9364 17.4354V6.56543C21.9364 5.90239 21.673 5.2665 21.2042 4.79766C20.7353 4.32882 20.0994 4.06543 19.4364 4.06543ZM4.56641 5.06543H19.4364C19.8149 5.06434 20.1796 5.20744 20.4564 5.46564C20.7332 5.72384 20.9012 6.07775 20.9264 6.45543C18.4564 7.77543 15.9764 9.08543 13.4964 10.4054C13.1609 10.6157 12.8059 10.7932 12.4364 10.9354C12.1463 10.9927 11.8474 10.9875 11.5594 10.9203C11.2715 10.853 11.0011 10.7252 10.7664 10.5454C9.34641 9.79543 7.92641 9.03543 6.51641 8.28543C5.37641 7.68543 4.21641 7.07543 3.07641 6.46543C3.0996 6.08615 3.26673 5.73003 3.54366 5.46983C3.82059 5.20962 4.18641 5.06498 4.56641 5.06543ZM20.9364 17.4354C20.9364 17.8333 20.7784 18.2148 20.4971 18.4961C20.2158 18.7774 19.8342 18.9354 19.4364 18.9354H4.56641C4.16858 18.9354 3.78705 18.7774 3.50575 18.4961C3.22444 18.2148 3.06641 17.8333 3.06641 17.4354V7.60043C5.42641 8.84043 7.77641 10.1004 10.1364 11.3504C10.5581 11.6089 11.012 11.8107 11.4864 11.9504C12.1808 12.0633 12.8925 11.9174 13.4864 11.5404C14.9364 10.7804 16.3764 10.0104 17.8264 9.25043C18.8664 8.69043 19.8964 8.15043 20.9364 7.60043V17.4354Z" fill="white" fill-opacity="0.5"/>
</svg>

<svg xmlns="http://www.w3.org/2000/svg" width="24" height="24" fill="none"><path fill="#fff" fill-opacity=".5" d="M19.436 4.065H4.566a2.5 2.5 0 0 0-2.5 2.5v10.87a2.5 2.5 0 0 0 2.5 2.5h14.87a2.5 2.5 0 0 0 2.5-2.5V6.565a2.5 2.5 0 0 0-2.5-2.5m-14.87 1h14.87a1.49 1.49 0 0 1 1.49 1.39c-2.47 1.32-4.95 2.63-7.43 3.95q-.504.316-1.06.53a2.08 2.08 0 0 1-1.67-.39c-1.42-.75-2.84-1.51-4.25-2.26-1.14-.6-2.3-1.21-3.44-1.82a1.49 1.49 0 0 1 1.49-1.4m16.37 12.37a1.5 1.5 0 0 1-1.5 1.5H4.566a1.5 1.5 0 0 1-1.5-1.5V7.6c2.36 1.24 4.71 2.5 7.07 3.75.422.259.876.46 1.35.6a2.87 2.87 0 0 0 2-.41c1.45-.76 2.89-1.53 4.34-2.29 1.04-.56 2.07-1.1 3.11-1.65z"/></svg>
